X:21
T: Der Bremberger
N: A0023A
O: Europa, Mitteleuropa, Deutschland
N: Aeol mit phryg Schluss. Text, blos diese Strophe in den Grasliedlin
N: 1535 No 13. Melodie von mir aus den drei vorhandenen Stimmen (Dis-
N: kant, Alt, Bass) zu construieren versucht, da der Tenor mit der
N: Hauptmelodie leider verloren gegangen ist.
R: Romanze, Ballade, Lied
M: 4/2
L: 1/4
K: G
G2G3G | _B2B2d2d2 | d4c4 | _B4z4 | z6
_B2 | _B2AG=F2B2 | A4G4 | =F4z4 | z6
=F2 | =F4_E2D2 | =F4_B4 | G4=F4 | G4z2
_B2 | c2_BAG2=F2 | _E8 | D8 | z2

